;FLAVOR:Marlin
;TIME:13712
;Filament used: 19.8564m
;Layer height: 0.28
;MINX:21.835
;MINY:26.835
;MINZ:0.28
;MAXX:213.165
;MAXY:208.165
;MAXZ:2.8
;Generated with Cura_SteamEngine 4.7.1
M140 S50
M105
M190 S50
M104 S200
M105
M109 S200
M82 ;absolute extrusion mode
; Ender 3 Custom Start G-code
G92 E0 ; Reset Extruder
G28 ; Home all axes
G1 Z2.0 F3000 ; Move Z Axis up little to prevent scratching of Heat Bed
G1 X0.1 Y20 Z0.3 F5000.0 ; Move to start position
G1 X0.1 Y200.0 Z0.3 F1500.0 E15 ; Draw the first line
G1 X0.4 Y200.0 Z0.3 F5000.0 ; Move to side a little
G1 X0.4 Y20 Z0.3 F1500.0 E30 ; Draw the second line
G92 E0 ; Reset Extruder
G1 Z2.0 F3000 ; Move Z Axis up little to prevent scratching of Heat Bed
G1 X5 Y20 Z0.3 F5000.0 ; Move over to prevent blob squish
G92 E0
G92 E0
G1 F2700 E-5
;LAYER_COUNT:10
;LAYER:0
M107
;MESH:Placingmat.STL
G0 F6000 X66.547 Y92.302 Z0.28
;TYPE:WALL-INNER
G1 F2700 E0
G1 F1200 X67.176 Y92.063 E0.047
G1 X67.83 Y91.796 E0.09634
G1 X68.253 Y91.611 E0.12858
G1 X68.672 Y91.42 E0.16075
G1 X69.085 Y91.222 E0.19274
G1 X69.293 Y91.12 E0.20892
G1 X69.705 Y90.91 E0.24122
G1 X70.113 Y90.693 E0.27349
G1 X70.516 Y90.469 E0.3057
G1 X70.912 Y90.239 E0.33768
G1 X71.305 Y90.003 E0.3697
G1 X71.505 Y89.879 E0.38614
G1 X71.893 Y89.631 E0.4183
G1 X72.26 Y89.387 E0.44909
G1 X72.466 Y89.247 E0.46648
G1 X72.841 Y88.986 E0.49839
G1 X73.033 Y88.847 E0.51495
G1 X73.401 Y88.574 E0.54695
G1 X73.752 Y88.304 E0.57788
G1 X73.948 Y88.15 E0.59529
G1 X74.302 Y87.862 E0.62717
G1 X74.482 Y87.713 E0.64349
G1 X74.833 Y87.414 E0.67569
G1 X75.178 Y87.108 E0.7079
G1 X75.517 Y86.796 E0.74008
G1 X75.851 Y86.48 E0.7722
G1 X76.179 Y86.157 E0.80435
G1 X76.502 Y85.828 E0.83656
G1 X76.821 Y85.492 E0.86892
G1 X77.13 Y85.152 E0.90101
G1 X77.434 Y84.809 E0.93302
G1 X77.733 Y84.458 E0.96522
G1 X78.026 Y84.104 E0.99732
G1 X78.173 Y83.919 E1.01382
G1 X78.455 Y83.557 E1.04587
G1 X78.729 Y83.193 E1.0777
G1 X78.867 Y83.006 E1.09393
G1 X79.004 Y82.814 E1.1104
G1 X79.266 Y82.439 E1.14236
G1 X79.523 Y82.057 E1.17451
G1 X79.772 Y81.674 E1.20642
G1 X79.897 Y81.476 E1.22278
G1 X80.136 Y81.086 E1.25472
G1 X80.257 Y80.884 E1.27117
G1 X80.486 Y80.485 E1.3033
G1 X80.708 Y80.083 E1.33538
G1 X80.924 Y79.677 E1.3675
G1 X81.134 Y79.264 E1.39986
G1 X81.334 Y78.854 E1.43172
G1 X81.435 Y78.641 E1.44819
G1 X81.623 Y78.224 E1.48014
G1 X81.807 Y77.803 E1.51223
G1 X81.897 Y77.586 E1.52864
G1 X82.07 Y77.16 E1.56075
G1 X82.233 Y76.731 E1.59281
G1 X82.313 Y76.514 E1.60896
G1 X82.467 Y76.08 E1.64112
G1 X82.612 Y75.644 E1.67322
G1 X82.684 Y75.421 E1.68958
G1 X82.817 Y74.982 E1.72162
G1 X82.944 Y74.54 E1.75374
G1 X83.063 Y74.097 E1.78578
G1 X83.121 Y73.869 E1.80222
G1 X83.227 Y73.423 E1.83423
G1 X83.327 Y72.973 E1.86643
G1 X83.46 Y72.299 E1.91442
G1 X83.503 Y72.066 E1.93097
G1 X83.577 Y71.614 E1.96296
G1 X83.645 Y71.16 E1.99502
G1 X83.705 Y70.704 E2.02714
G1 X83.732 Y70.47 E2.0436
G1 X83.78 Y70.013 E2.07569
G1 X83.819 Y69.557 E2.10766
G1 X83.837 Y69.325 E2.12391
G1 X83.865 Y68.868 E2.15589
G1 X83.877 Y68.632 E2.1724
G1 X83.891 Y68.174 E2.2044
G1 X83.899 Y67.715 E2.23647
G1 X83.899 Y67.254 E2.26866
G1 X83.891 Y66.791 E2.30101
G1 X83.874 Y66.331 E2.33316
G1 X83.835 Y65.643 E2.38129
G1 X83.799 Y65.182 E2.41359
G1 X83.753 Y64.724 E2.44574
G1 X83.702 Y64.268 E2.47779
G1 X83.641 Y63.813 E2.50985
G1 X83.608 Y63.581 E2.52622
G1 X83.535 Y63.129 E2.5582
G1 X83.496 Y62.898 E2.57456
G1 X83.411 Y62.447 E2.60662
G1 X83.32 Y61.995 E2.63882
G1 X83.223 Y61.561 E2.66988
G1 X83.113 Y61.1 E2.70298
G1 X83.055 Y60.873 E2.71935
G1 X82.936 Y60.43 E2.75139
G1 X82.809 Y59.986 E2.78364
G1 X82.673 Y59.547 E2.81574
G1 X82.602 Y59.326 E2.83196
G1 X82.457 Y58.89 E2.86405
G1 X82.302 Y58.453 E2.89644
G1 X82.063 Y57.824 E2.94343
G1 X81.796 Y57.17 E2.99277
G1 X81.611 Y56.747 E3.02502
G1 X81.42 Y56.328 E3.05718
G1 X81.222 Y55.915 E3.08917
G1 X81.12 Y55.707 E3.10535
G1 X80.91 Y55.295 E3.13765
G1 X80.693 Y54.887 E3.16993
G1 X80.469 Y54.484 E3.20213
G1 X80.239 Y54.088 E3.23412
G1 X80.003 Y53.695 E3.26614
G1 X79.879 Y53.495 E3.28258
G1 X79.631 Y53.107 E3.31474
G1 X79.387 Y52.74 E3.34552
G1 X79.247 Y52.534 E3.36292
G1 X78.986 Y52.159 E3.39483
G1 X78.847 Y51.967 E3.41138
G1 X78.574 Y51.599 E3.44339
G1 X78.304 Y51.248 E3.47432
G1 X78.15 Y51.052 E3.49173
G1 X77.862 Y50.698 E3.5236
G1 X77.713 Y50.518 E3.53992
G1 X77.414 Y50.167 E3.57213
G1 X77.108 Y49.822 E3.60434
G1 X76.796 Y49.483 E3.63652
G1 X76.48 Y49.149 E3.66863
G1 X76.157 Y48.821 E3.70079
G1 X75.828 Y48.498 E3.73299
G1 X75.492 Y48.179 E3.76535
G1 X75.152 Y47.87 E3.79744
G1 X74.809 Y47.566 E3.82945
G1 X74.458 Y47.267 E3.86166
G1 X74.104 Y46.974 E3.89375
G1 X73.919 Y46.827 E3.91026
G1 X73.557 Y46.545 E3.94231
G1 X73.193 Y46.271 E3.97413
G1 X73.006 Y46.133 E3.99036
G1 X72.814 Y45.996 E4.00684
G1 X72.439 Y45.734 E4.03879
G1 X72.057 Y45.477 E4.07095
G1 X71.674 Y45.228 E4.10286
G1 X71.476 Y45.103 E4.11921
G1 X71.086 Y44.864 E4.15116
G1 X70.884 Y44.743 E4.16761
G1 X70.485 Y44.514 E4.19974
G1 X70.083 Y44.292 E4.23181
G1 X69.677 Y44.076 E4.26393
G1 X69.264 Y43.866 E4.2963
G1 X68.854 Y43.666 E4.32816
G1 X68.641 Y43.565 E4.34462
G1 X68.224 Y43.377 E4.37657
G1 X67.803 Y43.193 E4.40866
G1 X67.586 Y43.103 E4.42507
G1 X67.16 Y42.93 E4.45719
G1 X66.731 Y42.767 E4.48924
G1 X66.514 Y42.687 E4.50539
G1 X66.08 Y42.533 E4.53756
G1 X65.644 Y42.388 E4.56965
G1 X65.421 Y42.316 E4.58602
G1 X64.982 Y42.183 E4.61806
G1 X64.54 Y42.056 E4.65018
G1 X64.097 Y41.937 E4.68222
G1 X63.869 Y41.879 E4.69865
G1 X63.423 Y41.773 E4.73067
G1 X62.973 Y41.673 E4.76287
G1 X62.299 Y41.54 E4.81085
G1 X62.066 Y41.497 E4.8274
G1 X61.614 Y41.423 E4.85939
G1 X61.16 Y41.355 E4.89146
G1 X60.704 Y41.295 E4.92358
G1 X60.47 Y41.268 E4.94003
G1 X60.013 Y41.22 E4.97213
G1 X59.557 Y41.181 E5.00409
G1 X59.325 Y41.163 E5.02035
G1 X58.868 Y41.135 E5.05233
G1 X58.632 Y41.123 E5.06883
G1 X58.174 Y41.109 E5.10084
G1 X57.715 Y41.101 E5.1329
G1 X57.254 Y41.101 E5.1651
G1 X56.791 Y41.109 E5.19744
G1 X56.331 Y41.126 E5.22959
G1 X55.643 Y41.165 E5.27773
G1 X55.182 Y41.201 E5.31002
G1 X54.724 Y41.247 E5.34217
G1 X54.268 Y41.298 E5.37422
G1 X53.813 Y41.359 E5.40629
G1 X53.581 Y41.392 E5.42265
G1 X53.129 Y41.465 E5.45463
G1 X52.898 Y41.504 E5.471
G1 X52.447 Y41.589 E5.50305
G1 X51.995 Y41.68 E5.53526
G1 X51.561 Y41.777 E5.56632
G1 X51.1 Y41.887 E5.59942
G1 X50.873 Y41.945 E5.61578
G1 X50.43 Y42.064 E5.64782
G1 X49.986 Y42.191 E5.68008
G1 X49.547 Y42.327 E5.71218
G1 X49.326 Y42.398 E5.72839
G1 X48.89 Y42.543 E5.76048
G1 X48.453 Y42.698 E5.79287
G1 X47.824 Y42.937 E5.83987
G1 X47.17 Y43.204 E5.88921
G1 X46.747 Y43.389 E5.92146
G1 X46.328 Y43.58 E5.95362
G1 X45.915 Y43.778 E5.98561
G1 X45.707 Y43.88 E6.00179
G1 X45.295 Y44.09 E6.03409
G1 X44.887 Y44.307 E6.06637
G1 X44.484 Y44.531 E6.09857
G1 X44.088 Y44.761 E6.13056
G1 X43.695 Y44.997 E6.16257
G1 X43.495 Y45.121 E6.17901
G1 X43.107 Y45.369 E6.21117
G1 X42.74 Y45.613 E6.24196
G1 X42.534 Y45.753 E6.25935
G1 X42.159 Y46.014 E6.29126
G1 X41.967 Y46.153 E6.30782
G1 X41.599 Y46.426 E6.33982
G1 X41.248 Y46.696 E6.37075
G1 X41.052 Y46.85 E6.38816
G1 X40.698 Y47.138 E6.42004
G1 X40.518 Y47.287 E6.43636
G1 X40.167 Y47.586 E6.46857
G1 X39.822 Y47.892 E6.50077
G1 X39.483 Y48.204 E6.53295
G1 X39.149 Y48.52 E6.56507
G1 X38.821 Y48.843 E6.59722
G1 X38.498 Y49.172 E6.62943
G1 X38.179 Y49.508 E6.66179
G1 X37.87 Y49.848 E6.69388
G1 X37.566 Y50.191 E6.72589
G1 X37.267 Y50.542 E6.75809
G1 X36.974 Y50.896 E6.79019
G1 X36.827 Y51.081 E6.80669
G1 X36.545 Y51.443 E6.83875
G1 X36.271 Y51.807 E6.87057
G1 X36.133 Y51.994 E6.8868
G1 X35.996 Y52.186 E6.90327
G1 X35.734 Y52.561 E6.93523
G1 X35.477 Y52.943 E6.96738
G1 X35.228 Y53.326 E6.99929
G1 X35.103 Y53.524 E7.01565
G1 X34.864 Y53.914 E7.04759
G1 X34.743 Y54.116 E7.06404
G1 X34.514 Y54.515 E7.09617
G1 X34.292 Y54.917 E7.12825
G1 X34.076 Y55.323 E7.16037
G1 X33.866 Y55.736 E7.19273
G1 X33.666 Y56.146 E7.22459
G1 X33.565 Y56.359 E7.24106
G1 X33.377 Y56.776 E7.27301
G1 X33.193 Y57.197 E7.3051
G1 X33.103 Y57.414 E7.32151
G1 X32.93 Y57.84 E7.35362
G1 X32.767 Y58.269 E7.38568
G1 X32.687 Y58.486 E7.40183
G1 X32.533 Y58.92 E7.43399
G1 X32.388 Y59.356 E7.46609
G1 X32.316 Y59.579 E7.48246
G1 X32.183 Y60.018 E7.51449
G1 X32.056 Y60.46 E7.54662
G1 X31.937 Y60.903 E7.57865
G1 X31.879 Y61.131 E7.59509
G1 X31.773 Y61.577 E7.62711
G1 X31.673 Y62.027 E7.6593
G1 X31.54 Y62.701 E7.70729
G1 X31.497 Y62.934 E7.72384
G1 X31.423 Y63.386 E7.75583
G1 X31.355 Y63.84 E7.78789
G1 X31.295 Y64.296 E7.82002
G1 X31.268 Y64.53 E7.83647
G1 X31.22 Y64.987 E7.86856
G1 X31.181 Y65.443 E7.90053
G1 X31.163 Y65.675 E7.91678
G1 X31.135 Y66.132 E7.94876
G1 X31.123 Y66.368 E7.96527
G1 X31.109 Y66.826 E7.99727
G1 X31.101 Y67.285 E8.02934
G1 X31.101 Y67.746 E8.06153
G1 X31.109 Y68.209 E8.09388
G1 X31.126 Y68.669 E8.12603
G1 X31.165 Y69.357 E8.17416
G1 X31.201 Y69.818 E8.20646
G1 X31.247 Y70.276 E8.23861
G1 X31.298 Y70.732 E8.27066
G1 X31.359 Y71.187 E8.30272
G1 X31.392 Y71.419 E8.31909
G1 X31.465 Y71.871 E8.35107
G1 X31.504 Y72.102 E8.36743
G1 X31.589 Y72.553 E8.39949
G1 X31.68 Y73.005 E8.43169
G1 X31.777 Y73.439 E8.46275
G1 X31.887 Y73.9 E8.49586
G1 X31.945 Y74.127 E8.51222
G1 X32.064 Y74.57 E8.54426
G1 X32.191 Y75.014 E8.57651
G1 X32.327 Y75.453 E8.60861
G1 X32.398 Y75.674 E8.62483
G1 X32.543 Y76.11 E8.65692
G1 X32.698 Y76.547 E8.68931
G1 X32.937 Y77.176 E8.7363
G1 X33.204 Y77.83 E8.78564
G1 X33.389 Y78.253 E8.81789
G1 X33.58 Y78.672 E8.85005
G1 X33.778 Y79.085 E8.88204
G1 X33.88 Y79.293 E8.89822
G1 X34.09 Y79.705 E8.93052
G1 X34.307 Y80.113 E8.9628
G1 X34.531 Y80.516 E8.995
G1 X34.761 Y80.912 E9.02699
G1 X34.997 Y81.305 E9.05901
G1 X35.121 Y81.505 E9.07545
G1 X35.369 Y81.893 E9.10761
G1 X35.613 Y82.26 E9.13839
G1 X35.753 Y82.466 E9.15579
G1 X36.014 Y82.841 E9.1877
G1 X36.153 Y83.033 E9.20426
G1 X36.426 Y83.401 E9.23626
G1 X36.696 Y83.752 E9.26719
G1 X36.85 Y83.948 E9.2846
G1 X37.138 Y84.302 E9.31647
G1 X37.287 Y84.482 E9.3328
G1 X37.586 Y84.833 E9.365
G1 X37.892 Y85.178 E9.39721
G1 X38.204 Y85.517 E9.42939
G1 X38.52 Y85.851 E9.46151
G1 X38.843 Y86.179 E9.49366
G1 X39.172 Y86.502 E9.52586
G1 X39.508 Y86.821 E9.55822
G1 X39.848 Y87.13 E9.59031
G1 X40.191 Y87.434 E9.62232
G1 X40.542 Y87.733 E9.65453
G1 X40.896 Y88.026 E9.68663
G1 X41.081 Y88.173 E9.70313
G1 X41.443 Y88.455 E9.73518
G1 X41.807 Y88.729 E9.767
G1 X41.994 Y88.867 E9.78324
G1 X42.186 Y89.004 E9.79971
G1 X42.561 Y89.266 E9.83166
G1 X42.943 Y89.523 E9.86382
G1 X43.326 Y89.772 E9.89573
G1 X43.524 Y89.897 E9.91208
G1 X43.914 Y90.136 E9.94403
G1 X44.116 Y90.257 E9.96048
G1 X44.515 Y90.486 E9.99261
G1 X44.917 Y90.708 E10.02468
G1 X45.323 Y90.924 E10.0568
G1 X45.736 Y91.134 E10.08917
G1 X46.146 Y91.334 E10.12103
G1 X46.359 Y91.435 E10.13749
G1 X46.776 Y91.623 E10.16944
G1 X47.197 Y91.807 E10.20153
G1 X47.414 Y91.897 E10.21794
G1 X47.84 Y92.07 E10.25006
G1 X48.269 Y92.233 E10.28211
G1 X48.486 Y92.313 E10.29826
G1 X48.92 Y92.467 E10.33043
G1 X49.356 Y92.612 E10.36252
G1 X49.579 Y92.684 E10.37889
G1 X50.018 Y92.817 E10.41093
G1 X50.46 Y92.944 E10.44305
G1 X50.903 Y93.063 E10.47509
G1 X51.131 Y93.121 E10.49152
G1 X51.577 Y93.227 E10.52354
G1 X52.027 Y93.327 E10.55574
G1 X52.701 Y93.46 E10.60372
G1 X52.934 Y93.503 E10.62027
G1 X53.386 Y93.577 E10.65226
G1 X53.84 Y93.645 E10.68433
G1 X54.296 Y93.705 E10.71645
G1 X54.53 Y93.732 E10.7329
G1 X54.987 Y93.78 E10.765
G1 X55.443 Y93.819 E10.79696
G1 X55.675 Y93.837 E10.81322
G1 X56.132 Y93.865 E10.8452
G1 X56.368 Y93.877 E10.8617
G1 X56.826 Y93.891 E10.89371
G1 X57.285 Y93.899 E10.92577
G1 X57.746 Y93.899 E10.95797
G1 X58.209 Y93.891 E10.99031
G1 X58.669 Y93.874 E11.02246
G1 X59.357 Y93.835 E11.0706
G1 X59.818 Y93.799 E11.10289
G1 X60.276 Y93.753 E11.13504
G1 X60.732 Y93.702 E11.16709
G1 X61.187 Y93.641 E11.19916
G1 X61.419 Y93.608 E11.21552
G1 X61.871 Y93.535 E11.2475
G1 X62.102 Y93.496 E11.26387
G1 X62.553 Y93.411 E11.29592
G1 X63.005 Y93.32 E11.32813
G1 X63.439 Y93.223 E11.35919
G1 X63.9 Y93.113 E11.39229
G1 X64.127 Y93.055 E11.40865
G1 X64.57 Y92.936 E11.44069
G1 X65.014 Y92.809 E11.47295
G1 X65.453 Y92.673 E11.50505
G1 X65.674 Y92.602 E11.52126
G1 X66.11 Y92.457 E11.55336
G1 X66.547 Y92.302 E11.58574
G0 F6000 X66.34 Y91.739
;TYPE:WALL-OUTER
G1 F1200 X66.956 Y91.505 E11.63177
G1 X67.596 Y91.243 E11.68007
G1 X68.008 Y91.063 E11.71147
G1 X68.418 Y90.876 E11.74295
G1 X68.823 Y90.682 E11.77431
G1 X69.025 Y90.583 E11.79002
G1 X69.428 Y90.378 E11.82161
G1 X69.826 Y90.166 E11.8531
G1 X70.219 Y89.947 E11.88453
G1 X70.607 Y89.722 E11.91585
G1 X70.993 Y89.49 E11.94731
G1 X71.186 Y89.371 E11.96315
G1 X71.565 Y89.128 E11.99459
G1 X71.926 Y88.889 E12.02483
G1 X72.126 Y88.753 E12.04172
G1 X72.494 Y88.496 E12.07307
G1 X72.679 Y88.363 E12.08899
G1 X73.039 Y88.095 E12.12034
G1 X73.383 Y87.831 E12.15062
G1 X73.573 Y87.681 E12.16753
G1 X73.922 Y87.398 E12.19891
G1 X74.096 Y87.254 E12.21469
G1 X74.439 Y86.961 E12.2462
G1 X74.776 Y86.663 E12.27762
G1 X75.107 Y86.358 E12.30906
G1 X75.434 Y86.048 E12.34053
G1 X75.754 Y85.733 E12.37189
G1 X76.07 Y85.411 E12.4034
G1 X76.381 Y85.084 E12.43492
G1 X76.683 Y84.751 E12.46632
G1 X76.981 Y84.415 E12.49769
G1 X77.274 Y84.072 E12.5292
G1 X77.56 Y83.726 E12.56055
G1 X77.702 Y83.548 E12.57646
G1 X77.978 Y83.193 E12.60786
G1 X78.248 Y82.834 E12.63924
G1 X78.382 Y82.653 E12.65497
G1 X78.514 Y82.468 E12.67084
G1 X78.771 Y82.1 E12.70219
G1 X79.023 Y81.726 E12.73369
G1 X79.267 Y81.35 E12.765
G1 X79.388 Y81.159 E12.78079
G1 X79.623 Y80.775 E12.81224
G1 X79.739 Y80.581 E12.82803
G1 X79.963 Y80.19 E12.8595
G1 X80.181 Y79.797 E12.89089
G1 X80.392 Y79.4 E12.92229
G1 X80.597 Y78.997 E12.95387
G1 X80.793 Y78.594 E12.98517
G1 X80.89 Y78.389 E13.00101
G1 X81.075 Y77.98 E13.03237
G1 X81.255 Y77.568 E13.06377
G1 X81.342 Y77.358 E13.07965
G1 X81.511 Y76.941 E13.11107
G1 X81.671 Y76.52 E13.14253
G1 X81.749 Y76.309 E13.15824
G1 X81.9 Y75.885 E13.18968
G1 X82.042 Y75.458 E13.22111
G1 X82.111 Y75.242 E13.23695
G1 X82.242 Y74.812 E13.26834
G1 X82.366 Y74.38 E13.29974
G1 X82.482 Y73.946 E13.33111
G1 X82.538 Y73.726 E13.34697
G1 X82.642 Y73.288 E13.37841
G1 X82.74 Y72.849 E13.40983
G1 X82.871 Y72.187 E13.45697
G1 X82.912 Y71.964 E13.4728
G1 X82.984 Y71.521 E13.50415
G1 X83.051 Y71.076 E13.53558
G1 X83.11 Y70.63 E13.567
G1 X83.136 Y70.404 E13.58289
G1 X83.183 Y69.956 E13.61436
G1 X83.221 Y69.509 E13.64569
G1 X83.238 Y69.284 E13.66145
G1 X83.266 Y68.835 E13.69287
G1 X83.277 Y68.608 E13.70875
G1 X83.291 Y68.159 E13.74012
G1 X83.299 Y67.71 E13.77149
G1 X83.299 Y67.259 E13.80299
G1 X83.291 Y66.807 E13.83457
G1 X83.275 Y66.359 E13.86588
G1 X83.236 Y65.684 E13.9131
G1 X83.201 Y65.235 E13.94456
G1 X83.156 Y64.787 E13.97601
G1 X83.106 Y64.341 E14.00735
G1 X83.047 Y63.895 E14.03878
G1 X83.015 Y63.671 E14.05458
G1 X82.943 Y63.227 E14.086
G1 X82.905 Y63.004 E14.1018
G1 X82.822 Y62.562 E14.13321
G1 X82.733 Y62.12 E14.1647
G1 X82.638 Y61.696 E14.19505
G1 X82.53 Y61.244 E14.22751
G1 X82.474 Y61.024 E14.24336
G1 X82.358 Y60.59 E14.27474
G1 X82.234 Y60.157 E14.3062
G1 X82.101 Y59.727 E14.33764
G1 X82.032 Y59.512 E14.35341
G1 X81.89 Y59.085 E14.38484
G1 X81.739 Y58.66 E14.41634
G1 X81.505 Y58.044 E14.46237
G1 X81.243 Y57.404 E14.51067
G1 X81.063 Y56.992 E14.54207
G1 X80.876 Y56.582 E14.57355
G1 X80.682 Y56.177 E14.60491
G1 X80.583 Y55.975 E14.62063
G1 X80.378 Y55.572 E14.65221
G1 X80.166 Y55.174 E14.6837
G1 X79.947 Y54.781 E14.71513
G1 X79.722 Y54.393 E14.74645
G1 X79.49 Y54.007 E14.77791
G1 X79.371 Y53.814 E14.79375
G1 X79.128 Y53.435 E14.82519
G1 X78.889 Y53.074 E14.85543
G1 X78.753 Y52.874 E14.87233
G1 X78.496 Y52.506 E14.90368
G1 X78.363 Y52.321 E14.91959
