;FLAVOR:Marlin
;TIME:14080
;Filament used: 10.0769m
;Layer height: 0.2
;MINX:64.7
;MINY:67.45
;MINZ:0.2
;MAXX:170.3
;MAXY:167.55
;MAXZ:25
;Generated with Cura_SteamEngine 4.7.1
M140 S50
M105
M190 S50
M104 S200
M105
M109 S200
M82 ;absolute extrusion mode
; Ender 3 Custom Start G-code
G92 E0 ; Reset Extruder
G28 ; Home all axes
G1 Z2.0 F3000 ; Move Z Axis up little to prevent scratching of Heat Bed
G1 X0.1 Y20 Z0.3 F5000.0 ; Move to start position
G1 X0.1 Y200.0 Z0.3 F1500.0 E15 ; Draw the first line
G1 X0.4 Y200.0 Z0.3 F5000.0 ; Move to side a little
G1 X0.4 Y20 Z0.3 F1500.0 E30 ; Draw the second line
G92 E0 ; Reset Extruder
G1 Z2.0 F3000 ; Move Z Axis up little to prevent scratching of Heat Bed
G1 X5 Y20 Z0.3 F5000.0 ; Move over to prevent blob squish
G92 E0
G92 E0
G1 F2700 E-5
;LAYER_COUNT:125
;LAYER:0
M107
G0 F6000 X67.123 Y69.599 Z0.2
;TYPE:SKIRT
G1 F2700 E0
G1 F1200 X67.722 Y69.084 E0.02627
G1 X68.37 Y68.633 E0.05253
G1 X69.061 Y68.249 E0.07883
G1 X69.786 Y67.937 E0.10508
G1 X70.539 Y67.7 E0.13133
G1 X71.313 Y67.541 E0.15761
G1 X72.098 Y67.46 E0.18386
G1 X72.5 Y67.45 E0.19724
G1 X117.5 Y67.45 E1.69394
G1 X118.289 Y67.49 E1.72022
G1 X119.069 Y67.609 E1.74646
G1 X119.834 Y67.807 E1.77274
G1 X120.574 Y68.081 E1.79899
G1 X121.283 Y68.429 E1.82526
G1 X121.954 Y68.847 E1.85155
G1 X122.578 Y69.33 E1.8778
G1 X123.151 Y69.873 E1.90405
G1 X123.666 Y70.472 E1.93033
G1 X124.117 Y71.12 E1.95659
G1 X124.501 Y71.811 E1.98288
G1 X124.813 Y72.536 E2.00913
G1 X125.05 Y73.289 E2.03539
G1 X125.209 Y74.063 E2.06167
G1 X125.29 Y74.848 E2.08792
G1 X125.3 Y75.25 E2.10129
G1 X125.3 Y84.95 E2.42391
G1 X162.5 Y84.95 E3.66119
G1 X163.289 Y84.99 E3.68747
G1 X164.069 Y85.109 E3.71371
G1 X164.834 Y85.307 E3.73999
G1 X165.574 Y85.581 E3.76624
G1 X166.283 Y85.929 E3.79251
G1 X166.954 Y86.347 E3.8188
G1 X167.578 Y86.83 E3.84505
G1 X168.151 Y87.373 E3.8713
G1 X168.666 Y87.972 E3.89758
G1 X169.117 Y88.62 E3.92384
G1 X169.501 Y89.311 E3.95013
G1 X169.813 Y90.036 E3.97638
G1 X170.05 Y90.789 E4.00264
G1 X170.209 Y91.563 E4.02892
G1 X170.29 Y92.348 E4.05516
G1 X170.3 Y92.75 E4.06854
G1 X170.3 Y109.75 E4.63396
G1 X170.26 Y110.539 E4.66024
G1 X170.141 Y111.319 E4.68648
G1 X169.943 Y112.084 E4.71276
G1 X169.669 Y112.824 E4.73901
G1 X169.321 Y113.533 E4.76528
G1 X168.903 Y114.204 E4.79157
G1 X168.42 Y114.828 E4.81782
G1 X167.877 Y115.401 E4.84407
G1 X167.278 Y115.916 E4.87035
G1 X166.63 Y116.367 E4.89661
G1 X165.939 Y116.751 E4.9229
G1 X165.214 Y117.063 E4.94915
G1 X164.461 Y117.3 E4.97541
G1 X163.687 Y117.459 E5.00169
G1 X162.902 Y117.54 E5.02794
G1 X162.5 Y117.55 E5.04131
G1 X118.682 Y117.55 E6.4987
G1 X119.069 Y117.609 E6.51172
G1 X119.834 Y117.807 E6.53801
G1 X120.574 Y118.081 E6.56425
G1 X121.283 Y118.429 E6.59052
G1 X121.954 Y118.847 E6.61681
G1 X122.578 Y119.33 E6.64306
G1 X123.151 Y119.873 E6.66931
G1 X123.666 Y120.472 E6.69559
G1 X124.117 Y121.12 E6.72185
G1 X124.501 Y121.811 E6.74814
G1 X124.813 Y122.536 E6.77439
G1 X125.05 Y123.289 E6.80065
G1 X125.209 Y124.063 E6.82693
G1 X125.29 Y124.848 E6.85318
G1 X125.3 Y125.25 E6.86655
G1 X125.3 Y134.95 E7.18918
G1 X162.5 Y134.95 E8.42645
G1 X163.289 Y134.99 E8.45273
G1 X164.069 Y135.109 E8.47897
G1 X164.834 Y135.307 E8.50525
G1 X165.574 Y135.581 E8.5315
G1 X166.283 Y135.929 E8.55777
G1 X166.954 Y136.347 E8.58406
G1 X167.578 Y136.83 E8.61031
G1 X168.151 Y137.373 E8.63656
G1 X168.666 Y137.972 E8.66284
G1 X169.117 Y138.62 E8.6891
G1 X169.501 Y139.311 E8.71539
G1 X169.813 Y140.036 E8.74164
G1 X170.05 Y140.789 E8.7679
G1 X170.209 Y141.563 E8.79418
G1 X170.29 Y142.348 E8.82043
G1 X170.3 Y142.75 E8.8338
G1 X170.3 Y159.75 E9.39922
G1 X170.26 Y160.539 E9.4255
G1 X170.141 Y161.319 E9.45174
G1 X169.943 Y162.084 E9.47802
G1 X169.669 Y162.824 E9.50427
G1 X169.321 Y163.533 E9.53054
G1 X168.903 Y164.204 E9.55683
G1 X168.42 Y164.828 E9.58308
G1 X167.877 Y165.401 E9.60933
G1 X167.278 Y165.916 E9.63561
G1 X166.63 Y166.367 E9.66187
G1 X165.939 Y166.751 E9.68816
G1 X165.214 Y167.063 E9.71441
G1 X164.461 Y167.3 E9.74067
G1 X163.687 Y167.459 E9.76695
G1 X162.902 Y167.54 E9.7932
G1 X162.5 Y167.55 E9.80657
G1 X72.5 Y167.55 E12.79998
G1 X71.711 Y167.51 E12.82626
G1 X70.931 Y167.391 E12.8525
G1 X70.166 Y167.193 E12.87878
G1 X69.426 Y166.919 E12.90503
G1 X68.717 Y166.571 E12.9313
G1 X68.046 Y166.153 E12.95759
G1 X67.422 Y165.67 E12.98384
G1 X66.849 Y165.127 E13.01009
G1 X66.334 Y164.528 E13.03637
G1 X65.883 Y163.88 E13.06263
G1 X65.499 Y163.189 E13.08892
G1 X65.187 Y162.464 E13.11517
G1 X64.95 Y161.711 E13.14143
G1 X64.791 Y160.937 E13.16771
G1 X64.71 Y160.152 E13.19396
G1 X64.7 Y159.75 E13.20733
G1 X64.7 Y125.25 E14.35481
G1 X64.74 Y124.461 E14.38108
G1 X64.859 Y123.681 E14.40732
G1 X65.057 Y122.916 E14.43361
G1 X65.331 Y122.176 E14.45985
G1 X65.679 Y121.467 E14.48612
G1 X66.097 Y120.796 E14.51241
G1 X66.58 Y120.172 E14.53866
G1 X67.123 Y119.599 E14.56492
G1 X67.722 Y119.084 E14.59119
G1 X68.37 Y118.633 E14.61745
G1 X69.061 Y118.249 E14.64374
G1 X69.786 Y117.937 E14.66999
G1 X70.539 Y117.7 E14.69625
G1 X71.313 Y117.541 E14.72253
G1 X71.672 Y117.504 E14.73453
G1 X70.931 Y117.391 E14.75947
G1 X70.166 Y117.193 E14.78575
G1 X69.426 Y116.919 E14.81199
G1 X68.717 Y116.571 E14.83826
G1 X68.046 Y116.153 E14.86456
G1 X67.422 Y115.67 E14.8908
G1 X66.849 Y115.127 E14.91706
G1 X66.334 Y114.528 E14.94333
G1 X65.883 Y113.88 E14.96959
G1 X65.499 Y113.189 E14.99588
G1 X65.187 Y112.464 E15.02213
G1 X64.95 Y111.711 E15.04839
G1 X64.791 Y110.937 E15.07467
G1 X64.71 Y110.152 E15.10092
G1 X64.7 Y109.75 E15.11429
G1 X64.7 Y75.25 E16.26177
G1 X64.74 Y74.461 E16.28804
G1 X64.859 Y73.681 E16.31429
G1 X65.057 Y72.916 E16.34057
G1 X65.331 Y72.176 E16.36682
G1 X65.679 Y71.467 E16.39308
G1 X66.097 Y70.796 E16.41938
G1 X66.58 Y70.172 E16.44562
G1 X67.123 Y69.599 E16.47188
G0 F6000 X67.516 Y69.78
G1 F1200 X68.111 Y69.292 E16.49747
G1 X68.753 Y68.869 E16.52305
G1 X69.436 Y68.514 E16.54865
G1 X70.151 Y68.233 E16.5742
G1 X70.893 Y68.027 E16.59981
G1 X71.651 Y67.899 E16.62538
G1 X72.5 Y67.85 E16.65366
G1 X117.5 Y67.85 E18.15037
G1 X118.268 Y67.89 E18.17595
G1 X119.028 Y68.009 E18.20153
G1 X119.771 Y68.207 E18.22711
G1 X120.49 Y68.481 E18.2527
G1 X121.176 Y68.828 E18.27827
G1 X121.823 Y69.244 E18.30385
G1 X122.423 Y69.725 E18.32943
G1 X122.97 Y70.266 E18.35502
G1 X123.458 Y70.861 E18.38061
G1 X123.881 Y71.503 E18.40619
G1 X124.236 Y72.186 E18.43179
G1 X124.517 Y72.901 E18.45734
G1 X124.723 Y73.643 E18.48295
G1 X124.851 Y74.401 E18.50852
G1 X124.9 Y75.25 E18.5368
G1 X124.9 Y85.35 E18.87273
G1 X162.5 Y85.35 E20.12331
G1 X163.268 Y85.39 E20.14889
G1 X164.028 Y85.509 E20.17448
G1 X164.771 Y85.707 E20.20005
G1 X165.49 Y85.981 E20.22564
G1 X166.176 Y86.328 E20.25121
G1 X166.823 Y86.744 E20.2768
G1 X167.423 Y87.225 E20.30237
G1 X167.97 Y87.766 E20.32796
G1 X168.458 Y88.361 E20.35356
G1 X168.881 Y89.003 E20.37913
G1 X169.236 Y89.686 E20.40473
G1 X169.517 Y90.401 E20.43028
G1 X169.723 Y91.143 E20.45589
G1 X169.851 Y91.901 E20.48146
G1 X169.9 Y92.75 E20.50975
G1 X169.9 Y109.75 E21.07517
G1 X169.86 Y110.518 E21.10075
G1 X169.741 Y111.278 E21.12633
G1 X169.543 Y112.021 E21.15191
G1 X169.269 Y112.74 E21.1775
G1 X168.922 Y113.426 E21.20307
G1 X168.506 Y114.073 E21.22865
G1 X168.025 Y114.673 E21.25423
G1 X167.484 Y115.22 E21.27982
G1 X166.889 Y115.708 E21.30541
G1 X166.247 Y116.131 E21.33098
G1 X165.564 Y116.486 E21.35659
G1 X164.849 Y116.767 E21.38214
G1 X164.107 Y116.973 E21.40775
G1 X163.349 Y117.101 E21.43332
G1 X162.5 Y117.15 E21.4616
G1 X72.5 Y117.15 E24.45501
G1 X71.732 Y117.11 E24.48059
G1 X70.972 Y116.991 E24.50618
G1 X70.229 Y116.793 E24.53175
G1 X69.51 Y116.519 E24.55734
G1 X68.824 Y116.172 E24.58291
G1 X68.177 Y115.756 E24.6085
G1 X67.577 Y115.275 E24.63407
G1 X67.03 Y114.734 E24.65966
G1 X66.542 Y114.139 E24.68526
G1 X66.119 Y113.497 E24.71083
G1 X65.764 Y112.814 E24.73643
G1 X65.483 Y112.099 E24.76198
G1 X65.277 Y111.357 E24.7876
G1 X65.149 Y110.599 E24.81316
G1 X65.1 Y109.75 E24.84145
G1 X65.1 Y75.25 E25.98892
G1 X65.14 Y74.482 E26.0145
G1 X65.259 Y73.722 E26.04009
G1 X65.457 Y72.979 E26.06566
G1 X65.731 Y72.26 E26.09125
G1 X66.078 Y71.574 E26.11682
G1 X66.494 Y70.927 E26.14241
G1 X66.975 Y70.327 E26.16798
G1 X67.516 Y69.78 E26.19357
G0 F6000 X67.908 Y69.966
G1 F1200 X68.498 Y69.507 E26.21843
G1 X69.134 Y69.112 E26.24334
G1 X69.808 Y68.788 E26.26821
G1 X70.513 Y68.538 E26.29309
G1 X71.241 Y68.364 E26.31798
G1 X71.983 Y68.269 E26.34286
G1 X72.5 Y68.25 E26.36007
G1 X117.5 Y68.25 E27.85678
G1 X118.247 Y68.29 E27.88166
G1 X118.985 Y68.409 E27.90652
G1 X119.707 Y68.607 E27.93142
G1 X120.403 Y68.88 E27.95629
G1 X121.066 Y69.227 E27.98118
G1 X121.689 Y69.642 E28.00607
G1 X122.263 Y70.121 E28.03094
G1 X122.784 Y70.658 E28.05582
G1 X123.243 Y71.248 E28.08069
G1 X123.638 Y71.884 E28.10559
G1 X123.962 Y72.558 E28.13046
G1 X124.212 Y73.263 E28.15534
G1 X124.386 Y73.991 E28.18024
G1 X124.481 Y74.733 E28.20512
G1 X124.5 Y75.25 E28.22232
G1 X124.5 Y85.75 E28.57155
G1 X162.5 Y85.75 E29.83544
G1 X163.247 Y85.79 E29.86032
G1 X163.985 Y85.909 E29.88518
G1 X164.707 Y86.107 E29.91008
G1 X165.403 Y86.38 E29.93495
G1 X166.066 Y86.727 E29.95984
G1 X166.689 Y87.142 E29.98474
G1 X167.263 Y87.621 E30.0096
G1 X167.784 Y88.158 E30.03449
G1 X168.243 Y88.748 E30.05935
G1 X168.638 Y89.384 E30.08425
G1 X168.962 Y90.058 E30.10912
G1 X169.212 Y90.763 E30.134
G1 X169.386 Y91.491 E30.1589
G1 X169.481 Y92.233 E30.18378
G1 X169.5 Y92.75 E30.20099
G1 X169.5 Y109.75 E30.76641
G1 X169.46 Y110.497 E30.79129
G1 X169.341 Y111.235 E30.81615
G1 X169.143 Y111.957 E30.84105
G1 X168.87 Y112.653 E30.86592
G1 X168.523 Y113.316 E30.89081
G1 X168.108 Y113.939 E30.91571
G1 X167.629 Y114.513 E30.94057
G1 X167.092 Y115.034 E30.96546
G1 X166.502 Y115.493 E30.99032
G1 X165.866 Y115.888 E31.01522
G1 X165.192 Y116.212 E31.04009
G1 X164.487 Y116.462 E31.06497
G1 X163.759 Y116.636 E31.08987
G1 X163.017 Y116.731 E31.11475
G1 X162.5 Y116.75 E31.13196
G1 X72.5 Y116.75 E34.12537
G1 X71.753 Y116.71 E34.15025
G1 X71.015 Y116.591 E34.17511
G1 X70.293 Y116.393 E34.20001
G1 X69.597 Y116.12 E34.22488
G1 X68.934 Y115.773 E34.24977
G1 X68.311 Y115.358 E34.27466
G1 X67.737 Y114.879 E34.29953
G1 X67.216 Y114.342 E34.32442
G1 X66.757 Y113.752 E34.34928
G1 X66.362 Y113.116 E34.37418
G1 X66.038 Y112.442 E34.39905
G1 X65.788 Y111.737 E34.42393
G1 X65.614 Y111.009 E34.44883
G1 X65.519 Y110.267 E34.47371
G1 X65.5 Y109.75 E34.49091
G1 X65.5 Y75.25 E35.63839
G1 X65.54 Y74.503 E35.66327
G1 X65.659 Y73.765 E35.68813
G1 X65.857 Y73.043 E35.71303
G1 X66.13 Y72.347 E35.7379
G1 X66.477 Y71.684 E35.76279
G1 X66.892 Y71.061 E35.78769
G1 X67.371 Y70.487 E35.81255
G1 X67.908 Y69.966 E35.83744
G0 F6000 X67.765 Y70.652
G1 F1200 X68.299 Y70.159 E35.86161
G1 X68.884 Y69.729 E35.88576
G1 X69.513 Y69.365 E35.90993
G1 X70.178 Y69.072 E35.9341
G1 X70.871 Y68.854 E35.95826
G1 X71.583 Y68.714 E35.9824
G1 X72.5 Y68.65 E36.01297
G1 X117.5 Y68.65 E37.50968
G1 X118.225 Y68.69 E37.53383
G1 X118.942 Y68.809 E37.558
G1 X119.641 Y69.007 E37.58216
G1 X120.314 Y69.28 E37.60632
G1 X120.953 Y69.625 E37.63047
G1 X121.55 Y70.039 E37.65464
G1 X122.098 Y70.515 E37.67878
G1 X122.591 Y71.049 E37.70295
G1 X123.021 Y71.634 E37.7271
G1 X123.385 Y72.263 E37.75127
G1 X123.678 Y72.928 E37.77544
G1 X123.896 Y73.621 E37.7996
G1 X124.036 Y74.333 E37.82374
G1 X124.1 Y75.25 E37.85431
G1 X124.1 Y86.15 E38.21685
G1 X162.5 Y86.15 E39.49404
G1 X163.225 Y86.19 E39.51819
G1 X163.942 Y86.309 E39.54236
G1 X164.641 Y86.507 E39.56652
G1 X165.314 Y86.78 E39.59068
G1 X165.953 Y87.125 E39.61483
G1 X166.55 Y87.539 E39.639
G1 X167.098 Y88.015 E39.66314
G1 X167.591 Y88.549 E39.68731
G1 X168.021 Y89.134 E39.71146
G1 X168.385 Y89.763 E39.73563
G1 X168.678 Y90.428 E39.7598
G1 X168.896 Y91.121 E39.78396
G1 X169.036 Y91.833 E39.8081
G1 X169.1 Y92.75 E39.83867
G1 X169.1 Y109.75 E40.40409
G1 X169.06 Y110.475 E40.42824
G1 X168.941 Y111.192 E40.45242
G1 X168.743 Y111.891 E40.47658
G1 X168.47 Y112.564 E40.50074
G1 X168.125 Y113.203 E40.52489
G1 X167.711 Y113.8 E40.54905
G1 X167.235 Y114.348 E40.57319
G1 X166.701 Y114.841 E40.59737
G1 X166.116 Y115.271 E40.62152
G1 X165.487 Y115.635 E40.64569
G1 X164.822 Y115.928 E40.66986
G1 X164.129 Y116.146 E40.69402
G1 X163.417 Y116.286 E40.71815
G1 X162.5 Y116.35 E40.74873
G1 X72.5 Y116.35 E43.74214
G1 X71.775 Y116.31 E43.76629
G1 X71.058 Y116.191 E43.79046
G1 X70.359 Y115.993 E43.81463
G1 X69.686 Y115.72 E43.83878
G1 X69.047 Y115.375 E43.86294
G1 X68.45 Y114.961 E43.8871
G1 X67.902 Y114.485 E43.91124
G1 X67.409 Y113.951 E43.93541
G1 X66.979 Y113.366 E43.95956
G1 X66.615 Y112.737 E43.98373
G1 X66.322 Y112.072 E44.0079
G1 X66.104 Y111.379 E44.03207
G1 X65.964 Y110.667 E44.0562
G1 X65.9 Y109.75 E44.08677
G1 X65.9 Y75.25 E45.23425
G1 X65.94 Y74.525 E45.2584
G1 X66.059 Y73.808 E45.28257
G1 X66.257 Y73.109 E45.30674
G1 X66.53 Y72.436 E45.33089
G1 X66.875 Y71.797 E45.35505
G1 X67.289 Y71.2 E45.37921
G1 X67.765 Y70.652 E45.40335
G0 F6000 X68.159 Y70.823
G1 F1200 X68.689 Y70.359 E45.42678
G1 X69.268 Y69.959 E45.45019
G1 X69.889 Y69.627 E45.47361
G1 X70.543 Y69.367 E45.49702
G1 X71.223 Y69.183 E45.52045
G1 X71.919 Y69.077 E45.54386
G1 X72.5 Y69.05 E45.56321
G1 X117.5 Y69.05 E47.05991
G1 X118.203 Y69.09 E47.08333
G1 X118.897 Y69.209 E47.10675
G1 X119.572 Y69.407 E47.13015
G1 X120.221 Y69.679 E47.15355
G1 X120.835 Y70.024 E47.17698
G1 X121.406 Y70.435 E47.20038
G1 X121.927 Y70.909 E47.2238
G1 X122.391 Y71.439 E47.24723
G1 X122.791 Y72.018 E47.27064
G1 X123.123 Y72.639 E47.29406
G1 X123.383 Y73.293 E47.31747
G1 X123.567 Y73.973 E47.3409
G1 X123.673 Y74.669 E47.36432
G1 X123.7 Y75.25 E47.38366
G1 X123.7 Y86.55 E47.7595
G1 X162.5 Y86.55 E49.04999
G1 X163.203 Y86.59 E49.07341
G1 X163.897 Y86.709 E49.09683
G1 X164.572 Y86.907 E49.12023
G1 X165.221 Y87.179 E49.14363
G1 X165.835 Y87.524 E49.16706
G1 X166.406 Y87.935 E49.19046
G1 X166.927 Y88.409 E49.21388
G1 X167.391 Y88.939 E49.23731
G1 X167.791 Y89.518 E49.26072
G1 X168.123 Y90.139 E49.28414
G1 X168.383 Y90.793 E49.30755
G1 X168.567 Y91.473 E49.33098
G1 X168.673 Y92.169 E49.3544
G1 X168.7 Y92.75 E49.37374
G1 X168.7 Y109.75 E49.93916
G1 X168.66 Y110.453 E49.96258
G1 X168.541 Y111.147 E49.986
G1 X168.343 Y111.822 E50.0094
G1 X168.071 Y112.471 E50.0328
G1 X167.726 Y113.085 E50.05623
G1 X167.315 Y113.656 E50.07963
G1 X166.841 Y114.177 E50.10305
G1 X166.311 Y114.641 E50.12648
G1 X165.732 Y115.041 E50.14989
G1 X165.111 Y115.373 E50.17331
G1 X164.457 Y115.633 E50.19672
G1 X163.777 Y115.817 E50.22015
G1 X163.081 Y115.923 E50.24356
G1 X162.5 Y115.95 E50.26291
G1 X72.5 Y115.95 E53.25632
G1 X71.797 Y115.91 E53.27974
G1 X71.103 Y115.791 E53.30316
G1 X70.428 Y115.593 E53.32656
G1 X69.779 Y115.321 E53.34996
G1 X69.165 Y114.976 E53.37339
G1 X68.594 Y114.565 E53.39679
G1 X68.073 Y114.091 E53.42021
G1 X67.609 Y113.561 E53.44364
G1 X67.209 Y112.982 E53.46705
G1 X66.877 Y112.361 E53.49047
G1 X66.617 Y111.707 E53.51388
G1 X66.433 Y111.027 E53.53731
G1 X66.327 Y110.331 E53.56072
G1 X66.3 Y109.75 E53.58007
G1 X66.3 Y75.25 E54.72754
G1 X66.34 Y74.547 E54.75096
G1 X66.459 Y73.853 E54.77438
G1 X66.657 Y73.178 E54.79778
G1 X66.929 Y72.529 E54.82118
G1 X67.274 Y71.915 E54.84461
G1 X67.685 Y71.344 E54.86801
G1 X68.159 Y70.823 E54.89144
G0 F6000 X68.553 Y71.001
G1 F1200 X69.078 Y70.567 E54.91409
G1 X69.65 Y70.198 E54.93673
G1 X70.262 Y69.899 E54.95939
G1 X70.904 Y69.674 E54.98201
G1 X71.569 Y69.525 E55.00468
G1 X72.5 Y69.45 E55.03574
G1 X117.5 Y69.45 E56.53245
G1 X118.18 Y69.49 E56.55511
G1 X118.85 Y69.609 E56.57774
G1 X119.502 Y69.806 E56.60039
G1 X120.126 Y70.078 E56.62303
G1 X120.714 Y70.422 E56.64569
